Yaru++/apps/scalable/nvidia.svg

<svg enable-background="new" height="256" viewBox="0 0 256 256" width="256" xmlns="http://www.w3.org/2000/svg" xmlns:xlink="http://www.w3.org/1999/xlink">
  <linearGradient id="linearGradient4358" gradientTransform="matrix(0 -1 1 0 -10.0054 585.9946)" gradientUnits="userSpaceOnUse" x1="88" x2="488" y1="88" y2="488">
    <stop offset="0" stop-opacity=".588235"/>
    <stop offset=".88" stop-opacity="0"/>
    <stop offset="1"/>
  </linearGradient>
  <filter id="filter4380" color-interpolation-filters="sRGB" height="1.088" width="1.106" x="-.05" y="-.04">
    <feGaussianBlur stdDeviation="8.48"/>
  </filter>
  <filter id="filter4346" color-interpolation-filters="sRGB" height="1.022" width="1.026" x="-.01" y="-.01">
    <feGaussianBlur stdDeviation="2.12"/>
  </filter>
  <path d="m189.84323 74c-70.59344 0-78.18921 7.250835-77.84323 77.98706v146.01294 146.01294c-.34598 70.73623 7.24979 77.98706 77.84323 77.98706h196.31354c70.59344 0 76.00668-7.27384 77.84323-77.98706v-146.01294-146.01294c0-70.737067-7.24979-77.98706-77.84323-77.98706z" filter="url(#filter4346)" opacity=".1" transform="matrix(0 .5 -.5 0 276.82523 -15.328148)"/>
  <path d="m189.84323 74c-70.59344 0-78.18921 7.250835-77.84323 77.98706v146.01294 146.01294c-.34598 70.73623 7.24979 77.98706 77.84323 77.98706h196.31354c70.59344 0 77.84323-7.24999 77.84323-77.98706v-146.01294-146.01294c0-70.737067-7.24979-77.98706-77.84323-77.98706z" fill="url(#linearGradient4358)" filter="url(#filter4380)" opacity=".3" transform="matrix(0 .5 -.5 0 276.82523 -15.328148)"/>
  <path d="m241.83043 77.478254c0-36.098811-3.69016-39.983003-39.68984-39.806081h-74.31016-74.310154c-35.99969-.176922-39.68984 3.70727-39.68984 39.806081v100.387326c0 36.09881 3.68973 39.80608 39.68984 39.80608h74.310154 74.31016c36.00011 0 39.68984-3.70727 39.68984-39.80608z" opacity=".1"/>
  <path d="m239.82523 176.74484c0 35.29673-3.62542 39.09461-38.99353 38.92162h-73.00647-73.006464c-35.36812.17299-38.99353-3.62489-38.99353-38.92162v-98.156766c0-35.296716 3.625-38.921616 38.99353-38.921616h73.006464 73.00647c35.36853 0 38.99353 3.6249 38.99353 38.921616z" fill="#46a926"/>
  <g fill="#262626">
    <path d="m127.45508 146.60352c-15.46437-5.49641-20.84766-24.59571-20.84766-24.59571s9.32651-11.34616 20.80664-9.88867c.0125 0 .02206.00391.03516.00391v-9.83399c-21.87412 2.5032-35.402345 17.9375-35.402345 17.9375s7.971575 30.16444 35.402345 35.33789v-8.96093z"/>
    <path d="m130.27148 90.746094c-1.07502.036343-1.77169.107085-2.8164.171875v11.371091c1.92325-.21666 3.52547-.36792 5.57226-.36718 18.82964 0 30 15.49609 30 15.49609l-15.30078 13.65039c-6.88018-12.13325-8.82731-17.48047-20.27148-18.94336v34.47852.00195c2.59365.92269 5.11976 1.46875 8.33398 1.46875 22.33357 0 43.16406-30.60547 43.16406-30.60547.00001 0-19.28629-27.699476-48.68164-26.722656z"/>
    <path d="m127.44922 81.710938c-35.956346 3.054894-67.44922 35.271482-67.44922 35.271482s17.992389 53.93109 67.44922 58.86914v-9.78515c-36.291223-4.83691-49.073922-47.14294-49.076173-47.15039.004491-.00686 16.618255-25.374897 49.076173-28.000004z"/>
    <path d="m126.52148 215.66602h1.30469 73.00586c4.42101.02162 8.34611-.0176 11.83008-.17383s6.52683-.42948 9.18359-.8711c2.65676-.44161 4.92781-1.05218 6.86719-1.88671.96969-.41727 1.85507-.89013 2.66602-1.42579.81094-.53566 1.54697-1.13524 2.21289-1.80273s1.26224-1.40403 1.79687-2.2168c.53463-.81276 1.00676-1.70039 1.42383-2.67187.83413-1.94297 1.44828-4.21653 1.89453-6.875.44626-2.65848.72437-5.70208.89258-9.1836.16821-3.48151.22656-7.40236.22656-11.81445v-98.156249c0-4.41209-.05836-8.329517-.22656-11.806641s-.44634-6.514298-.89258-9.166016c-.44624-2.651717-1.06042-4.917646-1.89453-6.853515-.41706-.967935-.88921-1.852595-1.42383-2.66211-.53462-.809514-1.13096-1.544195-1.79687-2.208984-.66592-.664789-1.40196-1.261163-2.21289-1.794922-.81094-.533759-1.69633-1.005452-2.66602-1.421875-1.93938-.832846-4.21042-1.442999-6.86719-1.888672s-5.69959-.726474-9.18359-.894531-7.40901-.224609-11.83008-.224609h-73.00586-.16406l-.20703 25.0625v16.982422c1.05549-.08541 1.75514-.157026 2.8164-.195313 40.87819-1.457504 67.51368 35.466795 67.51368 35.466795s-30.59026 39.35156-62.46094 39.35156c-2.92092 0-5.30069-.28647-7.86914-.76757v10.5c2.19631.29446 4.1179.46875 6.49414.46875 29.65791 0 51.10488-16.02271 71.87305-34.98633 3.44334 2.91733 17.53961 10.01459 20.4375 13.12109-19.74583 17.48905-65.76621 31.58594-91.85547 31.58594-2.51488 0-4.57321-.1598-6.94727-.40234z"/>
  </g>
  <path d="m54.81817 39.667201c-35.36853 0-38.992187 3.623202-38.992187 38.919923v98.158206c0 .0882.0019.16224.002.25v-96.410156c-.000047-35.29672 3.625564-38.921879 38.994094-38.921879h73.005853 73.00586c35.28016 0 38.97394 3.621035 38.99219 38.671879v-1.74805c0-35.296721-3.62561-38.919923-38.99414-38.919923h-73.00586z" fill="#fff" opacity=".3"/>
  <path d="m15.825983 117.03443v58.64257c0 36.26542 3.624067 40.1678 38.992187 39.99006h73.00781 73.00586c35.36811.17774 38.99414-3.72464 38.99414-39.99006v-58.64257z" fill="#fff" opacity=".05"/>
  <path d="m15.825983 117.03443v58.64258c0 36.26541 3.624067 40.16779 38.992187 39.99005h73.00781 73.00586c35.36811.17774 38.99414-3.72464 38.99414-39.99005v-58.64258z" fill="#fff" opacity=".05"/>
  <path d="m15.520889 174.22376v2c0 35.29673 3.624067 39.09487 38.992187 38.92188h73.007814 73.00586c35.36811.17299 38.99414-3.62515 38.99414-38.92188v-2c0 35.29673-3.62603 39.09487-38.99414 38.92188h-73.00586-73.007814c-35.36812.17299-38.992187-3.62515-38.992187-38.92188z" opacity=".2"/>
</svg>

<svg xmlns="http://www.w3.org/2000/svg" xmlns:xlink="http://www.w3.org/1999/xlink" style="enable-background:new" width="256" height="256" version="1.0" viewBox="0 0 256 256">
 <title id="title4162">
  Adwaita Icon Template
 </title>
 <defs>
  <linearGradient id="linearGradient965" x1="48" x2="464" y1="44" y2="44" gradientUnits="userSpaceOnUse">
   <stop id="stop989" offset="0" style="stop-color:#77767b"/>
   <stop id="stop991" offset=".05" style="stop-color:#c0bfbc"/>
   <stop id="stop993" offset=".1" style="stop-color:#9a9996"/>
   <stop id="stop995" offset=".9" style="stop-color:#9a9996"/>
   <stop id="stop997" offset=".95" style="stop-color:#c0bfbc"/>
   <stop id="stop999" offset="1" style="stop-color:#77767b"/>
  </linearGradient>
  <radialGradient id="radialGradient1030" cx="64" cy="194.19" r="44" gradientTransform="matrix(-4.7273,7.9359e-7,-3.0301e-7,-1.6364,238.55,49.766)" gradientUnits="userSpaceOnUse">
   <stop id="stop1016" offset="0" style="stop-color:#fff"/>
   <stop id="stop1018" offset="1" style="stop-color:#fff;stop-opacity:.094118"/>
  </radialGradient>
  <linearGradient id="linearGradient1950" x1="70.347" x2="70.347" y1="245.4" y2="269.14" gradientUnits="userSpaceOnUse">
   <stop id="stop1944" offset="0" style="stop-color:#2d2839"/>
   <stop id="stop1946" offset="1" style="stop-color:#282433"/>
  </linearGradient>
  <linearGradient id="linearGradient4358" x1="88" x2="488" y1="88" y2="488" gradientTransform="rotate(-90,287.9946,298)" gradientUnits="userSpaceOnUse" xlink:href="#linearGradient4360"/>
  <linearGradient id="linearGradient4360">
   <stop id="stop4362" offset="0" style="stop-color:#000000;stop-opacity:0.58823532"/>
   <stop style="stop-color:#000000;stop-opacity:0" id="stop4364" offset=".88"/>
   <stop id="stop4366" offset="1" style="stop-color:#000000"/>
  </linearGradient>
  <filter style="color-interpolation-filters:sRGB" id="filter4380" width="1.106" height="1.088" x="-.05" y="-.04">
   <feGaussianBlur id="feGaussianBlur4382" stdDeviation="8.48"/>
  </filter>
  <filter style="color-interpolation-filters:sRGB" id="filter4346" width="1.026" height="1.022" x="-.01" y="-.01">
   <feGaussianBlur id="feGaussianBlur4348" stdDeviation="2.12"/>
  </filter>
 </defs>
 <path style="opacity:0.1;filter:url(#filter4346)" d="M 189.84323,74 C 119.24979,74 111.65402,81.250835 112,151.98706 V 298 444.01294 C 111.65402,514.74917 119.24979,522 189.84323,522 H 386.15677 C 456.75021,522 462.16345,514.72616 464,444.01294 V 298 151.98706 C 464,81.249993 456.75021,74 386.15677,74 Z" transform="matrix(0,0.5,-0.5,0,276.82523,-15.328148)"/>
 <path d="M 189.84323,74 C 119.24979,74 111.65402,81.250835 112,151.98706 V 298 444.01294 C 111.65402,514.74917 119.24979,522 189.84323,522 H 386.15677 C 456.75021,522 464,514.75001 464,444.01294 V 298 151.98706 C 464,81.249993 456.75021,74 386.15677,74 Z" transform="matrix(0,0.5,-0.5,0,276.82523,-15.328148)" style="opacity:0.3;fill:url(#linearGradient4358);filter:url(#filter4380)"/>
 <path style="opacity:0.1" d="m 241.83043,77.478254 c 0,-36.098811 -3.69016,-39.983003 -39.68984,-39.806081 H 127.83043 53.520276 c -35.99969,-0.176922 -39.68984,3.70727 -39.68984,39.806081 V 177.86558 c 0,36.09881 3.68973,39.80608 39.68984,39.80608 h 74.310154 74.31016 c 36.00011,0 39.68984,-3.70727 39.68984,-39.80608 z"/>
 <path style="fill:#46a926" d="m 239.82523,176.74484 c 0,35.29673 -3.62542,39.09461 -38.99353,38.92162 H 127.82523 54.818766 c -35.36812,0.17299 -38.99353,-3.62489 -38.99353,-38.92162 V 78.588074 c 0,-35.296716 3.625,-38.921616 38.99353,-38.921616 h 73.006464 73.00647 c 35.36853,0 38.99353,3.6249 38.99353,38.921616 z"/>
 <path style="fill:#262626" d="M 127.45508 146.60352 C 111.99071 141.10711 106.60742 122.00781 106.60742 122.00781 C 106.60742 122.00781 115.93393 110.66165 127.41406 112.11914 C 127.42656 112.11914 127.43612 112.12305 127.44922 112.12305 L 127.44922 102.28906 C 105.5751 104.79226 92.046875 120.22656 92.046875 120.22656 C 92.046875 120.22656 100.01845 150.391 127.44922 155.56445 L 127.44922 146.60352 L 127.45508 146.60352 z"/>
 <path style="fill:#262626" d="M 130.27148 90.746094 C 129.19646 90.782437 128.49979 90.853179 127.45508 90.917969 L 127.45508 102.28906 C 129.37833 102.0724 130.98055 101.92114 133.02734 101.92188 C 151.85698 101.92188 163.02734 117.41797 163.02734 117.41797 L 147.72656 131.06836 C 140.84638 118.93511 138.89925 113.58789 127.45508 112.125 L 127.45508 146.60352 L 127.45508 146.60547 C 130.04873 147.52816 132.57484 148.07422 135.78906 148.07422 C 158.12263 148.07422 178.95312 117.46875 178.95312 117.46875 C 178.95313 117.46875 159.66683 89.769274 130.27148 90.746094 z"/>
 <path style="fill:#262626" d="M 127.44922 81.710938 C 91.492874 84.765832 60 116.98242 60 116.98242 C 60 116.98242 77.992389 170.91351 127.44922 175.85156 L 127.44922 166.06641 C 91.157997 161.2295 78.375298 118.92347 78.373047 118.91602 C 78.377538 118.90916 94.991302 93.541123 127.44922 90.916016 L 127.44922 81.710938 z"/>
 <path style="fill:#262626" d="M 126.52148 215.66602 L 127.82617 215.66602 L 200.83203 215.66602 C 205.25304 215.68764 209.17814 215.64842 212.66211 215.49219 C 216.14608 215.33596 219.18894 215.06271 221.8457 214.62109 C 224.50246 214.17948 226.77351 213.56891 228.71289 212.73438 C 229.68258 212.31711 230.56796 211.84425 231.37891 211.30859 C 232.18985 210.77293 232.92588 210.17335 233.5918 209.50586 C 234.25772 208.83837 234.85404 208.10183 235.38867 207.28906 C 235.9233 206.4763 236.39543 205.58867 236.8125 204.61719 C 237.64663 202.67422 238.26078 200.40066 238.70703 197.74219 C 239.15329 195.08371 239.4314 192.04011 239.59961 188.55859 C 239.76782 185.07708 239.82617 181.15623 239.82617 176.74414 L 239.82617 78.587891 C 239.82617 74.175801 239.76781 70.258374 239.59961 66.78125 C 239.43141 63.304126 239.15327 60.266952 238.70703 57.615234 C 238.26079 54.963517 237.64661 52.697588 236.8125 50.761719 C 236.39544 49.793784 235.92329 48.909124 235.38867 48.099609 C 234.85405 47.290095 234.25771 46.555414 233.5918 45.890625 C 232.92588 45.225836 232.18984 44.629462 231.37891 44.095703 C 230.56797 43.561944 229.68258 43.090251 228.71289 42.673828 C 226.77351 41.840982 224.50247 41.230829 221.8457 40.785156 C 219.18893 40.339483 216.14611 40.058682 212.66211 39.890625 C 209.17811 39.722568 205.2531 39.666016 200.83203 39.666016 L 127.82617 39.666016 L 127.66211 39.666016 L 127.45508 64.728516 L 127.45508 81.710938 C 128.51057 81.625528 129.21022 81.553912 130.27148 81.515625 C 171.14967 80.058121 197.78516 116.98242 197.78516 116.98242 C 197.78516 116.98242 167.1949 156.33398 135.32422 156.33398 C 132.4033 156.33398 130.02353 156.04751 127.45508 155.56641 L 127.45508 166.06641 C 129.65139 166.36087 131.57298 166.53516 133.94922 166.53516 C 163.60713 166.53516 185.0541 150.51245 205.82227 131.54883 C 209.26561 134.46616 223.36188 141.56342 226.25977 144.66992 C 206.51394 162.15897 160.49356 176.25586 134.4043 176.25586 C 131.88942 176.25586 129.83109 176.09606 127.45703 175.85352 L 126.52148 215.66602 z"/>
 <path style="opacity:0.3;fill:#ffffff" d="m 54.81817,39.667201 c -35.36853,0 -38.992187,3.623202 -38.992187,38.919923 v 98.158206 c 0,0.0882 0.0019,0.16224 0.002,0.25 V 80.585174 c -4.7e-5,-35.29672 3.625564,-38.921879 38.994094,-38.921879 h 73.005853 73.00586 c 35.28016,0 38.97394,3.621035 38.99219,38.671879 v -1.74805 c 0,-35.296721 -3.62561,-38.919923 -38.99414,-38.919923 h -73.00586 z"/>
 <path d="M 15.825983,117.03443 V 175.677 c 0,36.26542 3.624067,40.1678 38.992187,39.99006 h 73.00781 73.00586 c 35.36811,0.17774 38.99414,-3.72464 38.99414,-39.99006 v -58.64257 z" style="opacity:0.05;fill:#ffffff"/>
 <path style="opacity:0.05;fill:#ffffff" d="m 15.825983,117.03443 v 58.64258 c 0,36.26541 3.624067,40.16779 38.992187,39.99005 h 73.00781 73.00586 c 35.36811,0.17774 38.99414,-3.72464 38.99414,-39.99005 v -58.64258 z"/>
 <path style="opacity:0.2" d="m 15.520889,174.22376 v 2 c 0,35.29673 3.624067,39.09487 38.992187,38.92188 h 73.007814 73.00586 c 35.36811,0.17299 38.99414,-3.62515 38.99414,-38.92188 v -2 c 0,35.29673 -3.62603,39.09487 -38.99414,38.92188 H 127.52089 54.513076 c -35.36812,0.17299 -38.992187,-3.62515 -38.992187,-38.92188 z"/>
</svg>
